X:1
T:I’ll Be There
T:I’ll Be There
T:Z. A. Space
T:Z. A. Space, 1911
T:Public Domain Courtesy of the Cyber Hymnal™
T:Public Domain Courtesy of the Cyber Hymnal™
C:Z. A. Space
Z:Public Domain
Z:Courtesy of the Cyber Hymnal™
%%score ( 1 2 ) ( 3 4 )
L:1/8
Q:1/4=90
M:4/4
K:A
V:1 treble 
V:2 treble 
V:3 bass 
V:4 bass 
V:1
 [A,C][B,D] | [CE][CE] [DF]>[CE] [CA]2 [DG][EA] | [FB]>[FB] [F^A][FB] [DF]2 [DB][C=A] | %3
w: 1.~I’ll be|with Him by and by, In the|home be- yond the sky; With my|
w: 2.~I’ll be|with Him by and by, In the|land be- yond the sky; In the|
w: 3.~I’ll be|with Him by and by, In the|home be- yond the sky; With the|
 [DA][DG][DG][DF] [DG]<[Fd] [Ec]>[^D^B] | [Ec]6 [Ec][Ec] | [Fd][Fc] [EF]>[Ec] [^DB]2 [DB][DB] | %6
w: Sav- ior in His glo- ry, I’ll be|there! In the|place pre- pared for me, Far be-|
w: glo- ry of His pre- sence, I’ll be|there! With the|hap- py blood- washed throng I shall|
w: saints of all the ag- es, I’ll be|there! And with|loved ones gone be- fore I shall|
 [Ec][EB] [DE]>[DB] [CA]2 [CA][CA] | [DB][DA][DF][Fd] [Fd]<[Ec] [Ec]>[DB] | A6 ||"^Refrain" c>d | %10
w: yond life’s trou- bled sea, I shall|dwell with my Re- deem- er, I’ll be|there!||
w: sing re- demp- tion’s song, Ev- er|prais- ing my Re- deem- er, I’ll be|there!|I’ll be|
w: stand on yon- der shore, Face to|face with my Re- deem- er, I’ll be|there!||
 (z2 [CA]>)[DB] x6 | [Ec]6 [Fd][Ec] | [Ec][DB][DB][C^A] [DB]<E [E=A]>[EB] | c6 c>d | %14
w: ||||
w: * there!|I’ll be there!|When my name is called up yon- der|I’ll be there!|
w: ||||
 (z2 [CA]>)[DB] x6 | [Ec]6 [Fd][Ec] | [Ec][DB][DB][C^A] [DB]<[DE] !fermata![Ec]>[DB] | A4- [CA]2 |] %18
w: ||||
w: * I’ll|be there! I’ll|be there! And I’ll dwell with Him for-|ev- er:|
w: ||||
V:2
 x2 | x8 | x8 | x8 | x8 | x8 | x8 | x8 | (C2 D>D C2) || x2 | (e6 A>A A2) | x8 | x9/2 E3/2 x2 | %13
 (E2 A>F E2) x2 | (e6 A>A A2) | x8 | x8 | C2 D>D x2 |] %18
V:3
 [A,,E,][A,,E,] | [A,,A,][A,,A,] [A,,A,]>[A,,A,] [A,,E,]2 [B,,E,][C,A,] | %2
w: ~ ~|~ ~ ~ ~ ~ ~ ~|
 [D,A,]>[D,D] [D,D][D,D] [D,B,]2 [D,F,][D,F,] | %3
w: ~ ~ ~ ~ ~ ~ ~|
 [E,B,][E,B,][E,B,][E,A,] [E,B,]<[E,G,] [E,A,]>[E,A,] | A,6 A,A, | %5
w: ~ ~ ~ ~ ~ ~ ~ ~|~ ~ ~|
 [F,^A,][F,A,] F,>F, [B,,F,]2 [B,,=A,][B,,A,] | [E,G,][E,G,] [E,G,]>E, [A,,E,]2 [A,,=G,][A,,G,] | %7
w: ~ ~ ~ ~ ~ ~ ~|~ ~ ~ ~ ~ ~ ~|
 [D,F,][D,F,][D,A,][D,A,] [E,A,]<[E,A,] [E,A,]>[E,G,] | (A,2 F,>F, E,2) || A,>B, | z2 z2 x6 | %11
w: ~ ~ ~ ~ ~ ~ ~ ~|~ * * *|~ ~||
 z2 [A,,A,]>[A,,A,] [A,,A,]2 [A,,A,][A,,A,] | %12
w: ~ I’ll be there! I’ll|
 [E,A,][E,G,][E,G,][E,G,] [E,G,]<[D,B,] [C,A,]>[B,,G,] | [A,,A,]2 [A,,E,]>[A,,A,] [A,,A,]2 A,>B, | %14
w: be there! ~ ~ ~ ~ ~ ~|~ ~ ~ ~ ~ I’ll|
 z2 z2 x6 | z2 [A,,A,]>[A,,A,] [A,,A,]2 [A,,A,][A,,A,] | %16
w: |be there! ~ ~ ~|
 [E,A,][E,G,][E,G,][E,G,] [E,G,]<[E,G,] !fermata![E,A,]>[E,G,] | A,2 F,>F, [A,,E,]2 |] %18
w: I’ll be there! I’ll be there! ~ ~|~ ~ ~ ~|
V:4
 x2 | x8 | x8 | x8 | (A,2 E,>C, A,,2) A,A, | x2 F,>F, x4 | x7/2 E,/ x4 | x8 | A,,6 || x2 | %10
 C6 A,>A, A,2 | x8 | x8 | x8 | C6 A,>A, A,2 | x8 | x8 | A,,4- x2 |] %18

